X:1
T:Rose Leaf Rag
T:ROSE  LEAF  RAG.
T:By SCOTT JOPLIN Composer of “Maple Leaf Rag.”
T:A  Ragtime  Two  Step.
T:     NOTE:― Do not play this piece fast It is never right to play “Ragtime” fast. Composer. 
T:Public Domain
T:Public Domain
T:Public Domain
T:Public Domain
T:Public Domain
C:Scott Joplin
Z:Public Domain
%%score { ( 1 3 ) | ( 2 4 ) }
L:1/8
Q:1/4=60
M:2/4
K:C
V:1 treble nm="Piano."
V:3 treble 
V:2 bass 
V:4 bass 
V:1
"^Slow March tempo"!mf! G/A/^F/G/- (G/c/B/A/) | G/A/^F/G/- (G/e/d/c/) | (E>^D [CE]/)[C=DF][CD^F]/ | %3
 [B,DG]2 !^![GBdg]2 |:!mf! (c/B/c/e/) (a/^d/c/A/) |"^R.H." (G/^F/=F/E/-) E/E/!^![DE] | %6
 (A/^G/A/c/) (f/d/B/^G/) | (A/c/_B/A/-) A/=B/c | c/B^A/- A/A/B | B/AE/- ([CE]/[DF]/[EG]) | %10
!<(! (G/B/e/g/) [A^d]>[GB]-!<)! |!f! [GBe]2- [GBe]!arpeggio!!^![FBg] |!mf! (c/B/c/e/) (a/^d/c/A/) | %13
"^R.H." (G/^F/=F/E/-) E/E/!^![DE] | (A/^G/A/c/) (f/d/B/^G/) | (A/c/_B/A/-) A/f/g | %16
!<(! g/fc/- c/d/^d!<)! |!<(! [Gce]/[ceg][^cea]/- a/e/a!<)! | %18
!f! [=c^f][cf]/[B=f]/- [Bfb]/[e=ge']/[dfd'] |1 [cec'](G/^F/ G/^G/A/B/) :|2 %20
 [cec'](G/c/) (e/c/e/g/) |:!mf! (a/_a/g/_g/) f/d'd/ | aB/f/- (f/G/-d/^d/) | (e/_e/=d/_d/) c/gG/ | %24
 eE/c/- c/C/G | z/ [Gfg]/[Afa]/[^Af^a]/ [Bfb]/[cfc']/[dfd'] | %26
 [Adf][_Adf]/[Gdf]/- [Gdf]/[^Fd=f]/[Gdf] | z/ [Geg]/[Aea]/[Beb]/ [cec']/[dfd']/[ege'] | %28
 [Ace][_Ace]/[Gce]/- [Gce]/(c/e/g/) | (a/_a/g/_g/) f/d'd/ | aB/f/- (f/G/-d/^d/) | %31
 (e/_e/d/_d/) c/-g^g/ |!<(! [cfa]4!<)! |!<(! (c'/b/c'/a/-) (a/b/c')!<)! | %34
!f! (c'/b/c'/e/-)!>(! (e/c'/a/e/)!>)! |!mf! (c/d/e/d/-) (d/e/d) |1 [EGc](G/c/) (e/c/e/g/) :|2 %37
 [EGc](G/^F/) (G/^G/A/B/) ||!mf! (c/B/c/e/) (a/^d/c/A/) |"^R.H." (G/^F/=F/E/-) E/E/[DE] | %40
 (A/^G/A/c/) (f/d/B/^G/) | (A/c/_B/A/-) A/=B/c | c/B^A/- A/A/B | B/AE/- ([CE]/[DF]/[EG]) | %44
!<(! (G/B/e/g/) [A^d]>[GB]-!<)! |!f! [GBe]2- [GBe]!arpeggio!!^![FBg] |!mf! (c/B/c/e/) (a/^d/c/A/) | %47
"^R.H." (G/^F/=F/E/-) E/E/[DE] | (A/^G/A/c/) (f/d/B/^G/) | (A/c/_B/A/-) A/f/g | %50
!<(! g/fc/- c/d/^d!<)! |!<(! [Gce]/[ceg][^cea]/- a/e/a!<)! | %52
!f! [=c^f][cf]/[B=f]/- [Bfb]/[e=ge']/[dfd'] | [cec']c/c/ (c_B) |: %54
[K:F]!mp! ([FA]/[GB]/[^G=B]/[Ac]/-) ([Ac]/[_Bd]/[df]/[Bd]/) | %55
 ([Ac]/[^G=B]/[Ac]/[FA]/-) ([FA]/A/c/_e/) | d/gf/ _d/gf/ | [Ac]/[^G=B]/[Ac]/[FA]/- [FA]2 | %58
 (G/^F/G/A/-) (A/G/A/G/) | (F/E/F/A/-) A/^G/A |!<(! (E/G/c/e/) (e/c/d)!<)! |!mf! c2- c!^!c | %62
!mp! ([FA]/[GB]/[^G=B]/[Ac]/-) [Ac]/[_Bd]/[df]/[Bd]/ | [Ac]/[^G=B]/[Ac]/[FA]/- [FA]2 | (F/GF/) EE | %65
 [A,^CEA]2- [A,CEA][CEA] | (A/^G/A/B/-) (B/A/B/A/) | [B,DA]2 [B,DG][D=F^G] | %68
 (A/f/d/c/) [=B,F][_B,E=G] |1 [A,CF]c/c/ (cB) :|2 [A,CF](c/!<(!f/) (a/f/a/c'/)!<)! |: %71
!mf! (d'/^c'/d'/=c'/-) c'/d'c'/ | (d'/^c'/d'/=c'/-) c'/d'c'/ | (d'/^c'/d'/=c'/-) c'/d'c'/ | %74
 (d'/^c'/d'/=c'/-) c'/=d'c'/ | (e'/^d'/e'/=d'/-) d'/e'd'/ | (e'/^d'/e'/=d'/-) d'/e'c'/ | %77
 (f'/e'/f'/=c'/-) c'/d'c'/ | (f'/e'/f'/c'/-) [fac']/[fac']/[f=bd'] | (d'/^c'/d'/=c'/-) c'/d'c'/ | %80
 (d'/^c'/d'/=c'/-) c'/d'c'/ | (d'/^c'/d'/=c'/-) c'/d'c'/ | (d'/^c'/d'/=c'/-) c'/d'c'/ | %83
 c'/bf/- (f/c'/b) | b/af/- (f/b/a) | a/gg/- (g/a/g) |1 [Acf](c/f/) (a/f/a/c'/) :|2 %87
 [Acf]2 [fac'f'] z |] %88
V:2
 G,/A,/^F,/G,/- (G,/C/B,/A,/) | G,/A,/^F,/G,/- (G,/E/D/C/) | (G,>^F,) G,/A,_A,/ | %3
 G,2 !^![G,,,G,,]2 |: [C,C]E,/G,/ (^F,/A,/C/^D/) | %5
"^L.H."[I:staff -1] (E/^D/=D/C/-) C[I:staff +1]!^![E,^G,] | [A,,A,]C,/E,/ D,/F,/^G,/B,/ | %7
 (C/E/^C/D/-) D[_A,,_A,] | [G,,G,][F,G,B,] [G,,G,][F,G,] | C,[E,G,] C,[E,G,] | %10
 B,,[G,B,E] B,,[A,B,^D] | [E,E]/C/B,/G,/ E,!^![D,G,B,] | [C,C](E,/G,/) (^F,/A,/C/^D/) | %13
"^L.H."[I:staff -1] (E/^D/=D/C/-) C[I:staff +1]!^![E,^G,] | [A,,A,](C,/E,/) (D,/F,/^G,/B,/) | %15
 (C/E/^C/D/-) D[E,,E,] | [F,,F,][A,DF] [F,,F,][^F,,^F,] | [G,,G,][_B,,_B,] [A,,A,][A,^CEG] | %18
 [D,,D,][A,=CD^F] [G,,G,][G,B,D=F] |1 [C,C][G,CE] [G,B,=F]2 :|2 [C,C] z z (G,/E,/) |: %21
 D,"^legato e cantabile"[G,B,F] G,,[G,B,F] | B,,[G,B,F] G,,[G,B,F] | C,[G,CE] E,[G,CE] | %24
 G,,[G,C] E,C, | B,,[G,B,F] G,,[G,B,F] | B,,[G,B,F] G,,[G,B,=F] | C,[G,CE] G,,[G,CE] | %28
 C,[G,CE] E,[G,CE] | D,[G,B,F] G,,[G,B,F] | B,,[G,B,F] G,,[G,B,F] | C,[G,CE] C,[G,CE] | %32
 (F,/E,/F,/G,/ A,/B,/C) | [F,,F,][A,CF] [^F,,^F,][A,C^D] | [G,,G,][G,CE] [A,,A,][A,CE] | %35
 [A,,A,][D,,D,] [G,,G,][G,,,G,,] |1 [C,,C,] z z G,/E,/ :|2 [C,,C,][G,CE] [G,B,=F]2 || %38
 [C,C]E,/G,/ ^F,/A,/C/^D/ |"^L.H."[I:staff -1] (E/^D/=D/C/-) C[I:staff +1][E,^G,] | %40
 [A,,A,](C,/E,/) (D,/F,/^G,/B,/) | (C/E/^C/D/-) D[_A,,_A,] | [G,,G,][F,G,B,] [G,,G,][F,G,] | %43
 C,[E,G,] C,[E,G,] | B,,[G,B,E] B,,[A,B,^D] | [E,E]/C/B,/G,/ E,!^![D,G,B,] | %46
 [C,C]E,/G,/ (^F,/A,/C/^D/) |"^L.H."[I:staff -1] (E/^D/=D/C/-) C[I:staff +1][E,^G,] | %48
 [A,,A,](C,/E,/) (D,/F,/^G,/B,/) | (C/E/^C/D/-) D[E,,E,] | [F,,F,][A,DF] [F,,F,][^F,,^F,] | %51
 [G,,G,][_B,,_B,] [A,,A,][A,^CEG] | [D,,D,][A,=CD^F] [G,,G,][G,B,D=F] | [C,C] z [C,C]2 |: %54
[K:F] F,[A,CF] F,[B,DF] | F,[A,CF] F,[A,CF] | F,[B,DF] F,[B,_DF] | F,[A,CF] (F,/E,/D,/C,/) | %58
 [C,,C,][C,,C,] [^C,,^C,][C,,C,] | [D,,D,][D,,D,] [F,,F,][^F,,^F,] | [G,,G,]2 [A,,A,][G,,G,] | %61
 z/ (G,/A,/_B,/- B,/A,/)G, | F,[A,CF] F,[B,DF] | F,[A,CF] (C,/=B,,/C,/^C,/) | D,D, B,,B,, | %65
 A,,/^D,/E,/^C,/ A,,[G,,G,] | [^F,,^F,]2 [D,,D,][D,,D,] | (G,,/A,,/B,,/C,/) B,,=B,, | %68
 C,2 [D,,D,][C,,C,] |1 [F,,F,] z C,2 :|2 [F,,F,] z z [^F,,^F,] |: %71
 [G,,G,]"^giocoso"[B,CE] [C,,C,][B,CE] | [G,,G,][B,,B,] [A,,A,][G,,G,] | %73
 [F,,F,][A,CF] [C,,C,][A,CF] | [F,,F,][C,C] [A,,A,][^F,,^F,] | [G,,G,][B,CE] [C,,C,][B,CE] | %76
 [C,C][B,,B,] [G,,G,][^G,,^G,] | [A,,A,][A,CF] [F,,F,][A,CF] | [D,D][C,C] [A,,A,][_A,,_A,] | %79
 [G,,G,][B,CE] [C,,C,][B,CE] | [G,,G,][B,,B,] [A,,A,][G,,G,] | [F,,F,][A,CF] [C,,C,][A,CF] | %82
 [A,,A,][F,,F,] [G,,G,][A,,A,] | [B,,B,][B,DF] [B,,B,][B,_DF] | [C,C][A,CF] [A,,A,][A,CF] | %85
 [G,,G,][G,=B,DF] [C,,C,][_B,CE] |1 [F,,F,] z z [^F,,^F,] :|2 [F,,F,]{/=B,,}C,F,, z |] %88
V:3
 x4 | x4 | C2 x2 | x4 |: E2 z2 | x4 | C2 z2 | (A/A/E/F/-) F[DF] | [DF]>[^CE]- [CE][DF] | %9
 [CE]>C- x2 | x2 g/^fe/- | x4 | E2 z2 | x4 | C2 z2 | A/A/E/F/- F[_B^c] | [Ad]>A- A[Ac] | %17
 x2 [ce][^ce] | a/^g/a/b/- x2 |1 x4 :|2 x4 |: [Bf]2 f/bd/ | fB/d/- d/G/-[GB] | [Gc]2 c/=eG/ | %24
 cE/G/- G/C/E | x4 | x4 | x4 | x4 | [Bf]2 f/bd/ | fB/d/- d/G/-[GB] | [Gc]2 c-<[c=e] | x4 | %33
 f>^d- d2 | e>c- c2 | [^Fc]>[=FB]- [FB][FB] |1 x4 :|2 x4 || E2 z2 | x4 | C2 z2 | %41
 (A/A/E/F/-) F[DF] | [DF]>[^CE]- [CE][DF] | [CE]>C- x2 | x2 g/^fe/- | x4 | E2 z2 | x4 | C2 z2 | %49
 A/A/E/F/- F[_B^c] | [Ad]>A- A[Ac] | x2 [ce][^ce] | (a/^g/a/b/-) x2 | x2 E2 |:[K:F] x4 | x4 | %56
 B2 B2 | x4 | [B,E][B,E]/[A,E]/- [A,E][A,E] | [A,D][A,D]/[DF]/- [DF][C^D] | [CE]>[Gc] [^Fc][=F=B] | %61
 z/ ([CE]/[CF]/[CEG]/-) [CEG]/[CF]/[CE] | x4 | x4 | [A,D]2 [G,D][^G,D] | x4 | %66
 [=CD]>[C^F]- [CF][CF] | x4 | [CF]2 x2 |1 x2 E2 :|2 x4 |: [eb]>[eb]- [eb]<[eb] | %72
 [eb]>[eb]- [eb]<[eb] | [fa]>[fa]- [fa]<[fa] | [fa]>[fa]- [fa]<[^da] | [eb]>[eb]- [eb]<[eb] | %76
 [eb]>[eb]- [eb]<[eb] | [fa]>[fa]- [fa]<[fa] | [fa]>[fa]- x2 | [e_b]>[eb]- [eb]<[eb] | %80
 [eb]>[eb]- [eb]<[eb] | [fa]>[fa]- [fa]<[fa] | [_ea]>[ea]- [ea]<[ea] | [df]>[_df]- [df][df] | %84
 [cf]>[cf]- [cf][cf] | [=Bf]>[_Be]- [Be][Be] |1 x4 :|2 x4 |] %88
V:4
 x4 | x4 | x4 | x4 |: G,2 z2 | x4 | E,2 z2 | x4 | x4 | x4 | x4 | x4 | G,2 z2 | x4 | E,2 z2 | x4 | %16
 x4 | x4 | x4 |1 x4 :|2 x4 |: x4 | x4 | x4 | x4 | x4 | x4 | x4 | x4 | x4 | x4 | x4 | x4 | x4 | x4 | %35
 x4 |1 x4 :|2 x4 || G,2 x2 | x4 | E,2 z2 | x4 | x4 | x4 | x4 | x4 | G,2 z2 | x4 | E,2 z2 | x4 | %50
 x4 | x4 | x4 | x4 |:[K:F] F,2 F,2 | F,2 F,2 | F,2 F,2 | F,2 x2 | x4 | x4 | x4 | C,2- C,!^!C, | %62
 F,2 F,2 | F,2 x2 | x4 | x4 | x4 | x4 | x4 |1 x4 :|2 x4 |: x4 | x4 | x4 | x4 | x4 | x4 | x4 | x4 | %79
 x4 | x4 | x4 | x4 | x4 | x4 | x4 |1 x4 :|2 x4 |] %88

